assets/Person in tuxedo/Medium-Dark/Flat/person_in_tuxedo_flat_medium-dark.svg

<svg width="32" height="32" viewBox="0 0 32 32" fill="none" xmlns="http://www.w3.org/2000/svg">
<path d="M16.005 15.5C13.0708 15.5 10.4029 16.6486 8.42889 18.5217C6.31744 20.5252 6 23.3577 6 26.5V30H8H23.5H26V26.5C26 23.2363 25.5817 20.3068 23.3284 18.2932C21.384 16.5556 18.8179 15.5 16.005 15.5Z" fill="#533566"/>
<path d="M15.9798 29.9902H16.0202C20.7341 27.8002 21.4089 22.4902 21.4996 20.9402C21.5097 20.7102 21.3284 20.5102 21.0967 20.5102H20.5629C20.442 20.5102 20.3413 20.4102 20.3513 20.2902C20.3579 19.9333 20.3559 19.2838 20.3538 18.5617C20.3526 18.1719 20.3513 17.7495 20.3513 17.3502C20.3513 16.7302 19.9283 16.1902 19.334 16.0002C18.2865 15.6702 17.1684 15.4902 16.0101 15.4902H15.9899C14.8316 15.4902 13.7135 15.6702 12.666 16.0002C12.0717 16.1902 11.6487 16.7302 11.6487 17.3502C11.6487 17.7503 11.6474 18.1727 11.6462 18.5633C11.6441 19.2856 11.6421 19.9333 11.6487 20.2902C11.6587 20.4102 11.558 20.5102 11.4371 20.5102H10.9033C10.6716 20.5102 10.4903 20.7102 10.5004 20.9402C10.5911 22.4902 11.2659 27.8002 15.9798 29.9902Z" fill="#321B41"/>
<path d="M9 18C6.57 20.03 5.00006 23.09 5.01006 26.5L5.03006 30H9V18Z" fill="#321B41"/>
<path d="M23 18V30H27L26.99 26.4898C26.99 23.0798 25.45 20.02 23 18Z" fill="#321B41"/>
<path d="M13.25 16.5302V21.7502C13.25 24.7302 14.22 27.6202 16 30.0002C17.79 27.6202 18.75 24.6702 18.75 21.6902V16.4702L13.25 16.5302Z" fill="#D3D3D3"/>
<path d="M18.7401 14.5H16H13.25V17.063C13.25 18.3543 13.796 19.5767 14.769 20.4441C14.8583 20.5328 15.0072 20.5131 15.0866 20.4047L16 18.6796L16.9134 20.4047C16.9829 20.5131 17.1318 20.523 17.231 20.4441C18.194 19.5865 18.75 18.3543 18.75 17.063V14.5H18.7401Z" fill="#F4F4F4"/>
<path d="M22.25 5.29C21.95 4.77 21.48 4.41 20.96 4.23C20.39 4.04 19.89 3.66 19.58 3.15C19.16 2.46 18.4 2 17.54 2C17.21 2 16.89 2.07 16.61 2.19C16.22 2.36 15.78 2.36 15.39 2.19C15.1 2.07 14.79 2 14.46 2C13.61 2 12.86 2.44 12.44 3.11C12.11 3.63 11.62 4.03 11.03 4.23C10.48 4.42 10 4.81 9.71004 5.36C9.28004 6.16 9.37004 7.12 9.86004 7.83C10.03 8.09 10.13 8.4 10.13 8.71V12.88C10.13 13.81 10.72 14.63 11.6 14.94L13.49 15.59V8.17C13.64 8.03 13.76 7.86 13.87 7.67C14.04 7.38 14.14 7.06 14.17 6.75C14.26 6.76 14.36 6.77 14.45 6.77C15.04 6.77 15.58 6.56 15.99 6.2C16.41 6.55 16.94 6.77 17.53 6.77C17.63 6.77 17.72 6.76 17.81 6.75C17.85 7.07 17.94 7.38 18.11 7.67C18.22 7.86 18.35 8.02 18.49 8.17V15.6L20.38 14.95C21.26 14.65 21.85 13.82 21.85 12.89V8.72C21.85 8.41 21.95 8.1 22.13 7.84C22.65 7.1 22.72 6.11 22.25 5.29Z" fill="#2D242D"/>
<path d="M12.7701 10.5899C12.7701 11.5122 12.0224 12.2599 11.1001 12.2599C10.1777 12.2599 9.43005 11.5122 9.43005 10.5899C9.43005 9.66761 10.1777 8.91992 11.1001 8.91992C12.0224 8.91992 12.7701 9.66761 12.7701 10.5899Z" fill="#8B5C56"/>
<path d="M22.56 10.5899C22.56 11.5122 21.8123 12.2599 20.89 12.2599C19.9677 12.2599 19.22 11.5122 19.22 10.5899C19.22 9.66761 19.9677 8.91992 20.89 8.91992C21.8123 8.91992 22.56 9.66761 22.56 10.5899Z" fill="#8B5C56"/>
<path d="M16 19C14.8932 19 14 18.1724 14 17.1469V14.8441C14 13.8276 14.8932 13 16 13C17.1068 13 18 13.8276 18 14.8531V17.1559C17.9903 18.1724 17.0971 19 16 19Z" fill="#8B5C56"/>
<path d="M15.99 18.04C15.743 18.04 15.5238 18.1595 15.3872 18.3437L14.23 17.5401C14.01 17.3901 13.7 17.5501 13.7 17.8201V19.7501C13.7 20.0201 14.01 20.1901 14.23 20.0301L15.3855 19.2341C15.522 19.4196 15.7419 19.54 15.99 19.54C16.2462 19.54 16.4724 19.4116 16.6077 19.2156L17.79 20.0301C18.01 20.1901 18.32 20.0201 18.32 19.7501V17.8201C18.32 17.5501 18.01 17.3901 17.79 17.5401L16.6061 18.3622C16.4706 18.1675 16.2452 18.04 15.99 18.04Z" fill="#321B41"/>
<path d="M16.01 23.2798C16.2862 23.2798 16.51 23.0559 16.51 22.7798C16.51 22.5036 16.2862 22.2798 16.01 22.2798C15.7339 22.2798 15.51 22.5036 15.51 22.7798C15.51 23.0559 15.7339 23.2798 16.01 23.2798Z" fill="#321B41"/>
<path d="M16.01 26.4297C16.2862 26.4297 16.51 26.2058 16.51 25.9297C16.51 25.6535 16.2862 25.4297 16.01 25.4297C15.7339 25.4297 15.51 25.6535 15.51 25.9297C15.51 26.2058 15.7339 26.4297 16.01 26.4297Z" fill="#321B41"/>
<path d="M10.75 8.18812C10.8253 6.41802 12.3341 5 14.1775 5H15.4852C15.7669 5 16.0084 5.16585 16.119 5.40976C16.5214 6.27805 17.4167 6.82439 18.3925 6.82439H19.8311C20.6359 6.86341 21.2697 7.51707 21.2495 8.30731L21.2375 8.80981L20.9276 13.6439C20.6559 15.5659 18.976 17 16.974 17H15.0627C13.0708 17 11.3808 15.5659 11.1192 13.6439L10.75 8.18812Z" fill="#966661"/>
<path d="M16.0005 13.7057C15.45 13.7057 14.9301 13.5669 14.4918 13.3212C14.3389 13.2358 14.186 13.4174 14.2777 13.5669C14.6447 14.1542 15.2767 14.5493 16.0005 14.5493C16.7243 14.5493 17.3563 14.1542 17.7233 13.5669C17.8151 13.4174 17.652 13.2465 17.5093 13.3212C17.0607 13.5669 16.551 13.7057 16.0005 13.7057Z" fill="#990838"/>
<path d="M12.18 10.2802C12.33 9.6602 12.89 9.2002 13.56 9.2002C14.26 9.2002 14.83 9.6902 14.96 10.3502C14.99 10.5002 14.88 10.6302 14.73 10.6302H12.45C12.27 10.6302 12.13 10.4502 12.18 10.2802Z" fill="white"/>
<path d="M19.83 10.2802C19.68 9.6602 19.12 9.2002 18.45 9.2002C17.75 9.2002 17.18 9.6902 17.05 10.3502C17.02 10.5002 17.13 10.6302 17.28 10.6302H19.56C19.74 10.6302 19.87 10.4602 19.83 10.2802Z" fill="white"/>
<path d="M12.86 10.39C12.86 9.88998 13.27 9.47998 13.77 9.47998C14.28 9.47998 14.69 9.88998 14.68 10.39C14.68 10.47 14.67 10.55 14.65 10.63H12.89C12.87 10.55 12.86 10.47 12.86 10.39Z" fill="#7D4533"/>
<path d="M19.15 10.39C19.15 9.88998 18.74 9.47998 18.24 9.47998C17.73 9.47998 17.33 9.88998 17.33 10.39C17.33 10.47 17.34 10.55 17.36 10.63H19.12C19.14 10.55 19.15 10.47 19.15 10.39Z" fill="#7D4533"/>
<path d="M13.77 9.87012C14.06 9.87012 14.29 10.1001 14.29 10.3901C14.29 10.4801 14.27 10.5601 14.23 10.6301H13.31C13.27 10.5601 13.25 10.4801 13.25 10.3901C13.25 10.1001 13.48 9.87012 13.77 9.87012Z" fill="black"/>
<path d="M18.24 9.87012C17.95 9.87012 17.72 10.1001 17.72 10.3901C17.72 10.4801 17.74 10.5601 17.78 10.6301H18.7C18.74 10.5601 18.76 10.4801 18.76 10.3901C18.76 10.1001 18.53 9.87012 18.24 9.87012Z" fill="black"/>
<path d="M13.62 10.0199C13.62 10.1082 13.5484 10.1799 13.46 10.1799C13.3717 10.1799 13.3 10.1082 13.3 10.0199C13.3 9.9315 13.3717 9.85986 13.46 9.85986C13.5484 9.85986 13.62 9.9315 13.62 10.0199Z" fill="white"/>
<path d="M18.12 10.0199C18.12 10.1082 18.0484 10.1799 17.96 10.1799C17.8717 10.1799 17.8 10.1082 17.8 10.0199C17.8 9.9315 17.8717 9.85986 17.96 9.85986C18.0484 9.85986 18.12 9.9315 18.12 10.0199Z" fill="white"/>
<path d="M15.6541 10.2897L15.1583 12.0282C15.0554 12.384 15.2986 12.75 15.6447 12.75H16.3743C16.7204 12.75 16.9636 12.384 16.8607 12.0282L16.365 10.2897C16.2621 9.90342 15.7663 9.90342 15.6541 10.2897Z" fill="#75443E"/>
<path d="M12.3451 8.42675C12.3916 8.45985 12.4473 8.4776 12.5044 8.47752C12.5662 8.47719 12.6261 8.45605 12.6744 8.41752C13.1162 8.1244 13.6481 7.99852 14.1744 8.06252C14.21 8.0671 14.2461 8.06448 14.2806 8.0548C14.3151 8.04513 14.3473 8.0286 14.3753 8.0062C14.4033 7.9838 14.4265 7.956 14.4436 7.92444C14.4606 7.89288 14.4711 7.85822 14.4744 7.82252C14.4817 7.75118 14.4608 7.67981 14.4161 7.62372C14.3715 7.56763 14.3066 7.5313 14.2354 7.52252C13.5663 7.43577 12.8888 7.60156 12.3354 7.98752C12.2904 8.02264 12.2575 8.07095 12.2413 8.1257C12.225 8.18044 12.2263 8.23888 12.245 8.29286C12.2636 8.34683 12.2986 8.39364 12.3451 8.42675Z" fill="#372128"/>
<path d="M19.3464 8.42152C19.3941 8.45778 19.4524 8.47745 19.5124 8.47752C19.5695 8.47795 19.6264 8.46044 19.673 8.42746C19.7197 8.39449 19.7548 8.3477 19.7735 8.2937C19.7921 8.2397 19.7934 8.1812 19.7771 8.12645C19.7607 8.0717 19.7276 8.02346 19.6824 7.98852C19.1283 7.60389 18.4515 7.4379 17.7824 7.52252C17.7119 7.53297 17.6483 7.57045 17.605 7.62703C17.5617 7.6836 17.5421 7.75482 17.5505 7.82557C17.5588 7.89632 17.5943 7.96105 17.6496 8.00603C17.7048 8.05101 17.7754 8.07271 17.8464 8.06652C18.3728 8.00144 18.905 8.12741 19.3464 8.42152Z" fill="#372128"/>
</svg>

<svg xmlns="http://www.w3.org/2000/svg" width="32" height="32" fill="none"><path fill="#533566" d="M16.005 15.5a10.972 10.972 0 0 0-7.576 3.022C6.317 20.525 6 23.358 6 26.5V30h20v-3.5c0-3.264-.418-6.193-2.672-8.207a10.953 10.953 0 0 0-7.323-2.793Z"/><path fill="#321B41" d="M15.98 29.99h.04c4.714-2.19 5.389-7.5 5.48-9.05a.41.41 0 0 0-.403-.43h-.534c-.121 0-.222-.1-.212-.22.007-.357.005-1.006.003-1.728l-.003-1.212c0-.62-.423-1.16-1.017-1.35a11.053 11.053 0 0 0-3.324-.51h-.02c-1.158 0-2.277.18-3.324.51-.594.19-1.017.73-1.017 1.35l-.003 1.213c-.002.723-.004 1.37.003 1.727.01.12-.091.22-.212.22h-.534a.41.41 0 0 0-.403.43c.091 1.55.766 6.86 5.48 9.05ZM9 18c-2.43 2.03-4 5.09-3.99 8.5l.02 3.5H9V18ZM23 18v12h4l-.01-3.51c0-3.41-1.54-6.47-3.99-8.49Z"/><path fill="#D3D3D3" d="M13.25 16.53v5.22c0 2.98.97 5.87 2.75 8.25 1.79-2.38 2.75-5.33 2.75-8.31v-5.22l-5.5.06Z"/><path fill="#F4F4F4" d="M18.74 14.5h-5.49v2.563c0 1.291.546 2.514 1.519 3.381.09.089.238.07.318-.04L16 18.68l.913 1.725c.07.108.219.118.318.04a4.534 4.534 0 0 0 1.519-3.382V14.5h-.01Z"/><path fill="#2D242D" d="M22.25 5.29c-.3-.52-.77-.88-1.29-1.06a2.56 2.56 0 0 1-1.38-1.08 2.377 2.377 0 0 0-2.97-.96c-.39.17-.83.17-1.22 0-.29-.12-.6-.19-.93-.19-.85 0-1.6.44-2.02 1.11-.33.52-.82.92-1.41 1.12-.55.19-1.03.58-1.32 1.13-.43.8-.34 1.76.15 2.47.17.26.27.57.27.88v4.17c0 .93.59 1.75 1.47 2.06l1.89.65V8.17c.15-.14.27-.31.38-.5.17-.29.27-.61.3-.92a2.32 2.32 0 0 0 1.82-.55c.42.35.95.57 1.54.57.1 0 .19-.01.28-.02a2.373 2.373 0 0 0 .68 1.42v7.43l1.89-.65c.88-.3 1.47-1.13 1.47-2.06V8.72c0-.31.1-.62.28-.88.52-.74.59-1.73.12-2.55Z"/><path fill="#8B5C56" d="M12.77 10.59a1.67 1.67 0 1 1-3.34 0 1.67 1.67 0 0 1 3.34 0ZM22.56 10.59a1.67 1.67 0 1 1-3.34 0 1.67 1.67 0 0 1 3.34 0ZM16 19c-1.107 0-2-.828-2-1.853v-2.303c0-1.016.893-1.844 2-1.844s2 .828 2 1.853v2.303C17.99 18.172 17.097 19 16 19Z"/><path fill="#321B41" d="M15.99 18.04a.749.749 0 0 0-.603.304l-1.157-.804a.342.342 0 0 0-.53.28v1.93c0 .27.31.44.53.28l1.155-.796a.749.749 0 0 0 1.223-.018l1.182.814c.22.16.53-.01.53-.28v-1.93c0-.27-.31-.43-.53-.28l-1.184.822a.75.75 0 0 0-.616-.322ZM16.01 23.28a.5.5 0 1 0 0-1 .5.5 0 0 0 0 1ZM16.01 26.43a.5.5 0 1 0 0-1 .5.5 0 0 0 0 1Z"/><path fill="#966661" d="M10.75 8.188C10.825 6.418 12.334 5 14.178 5h1.307c.282 0 .523.166.634.41.402.868 1.298 1.414 2.273 1.414h1.44c.804.04 1.438.693 1.418 1.483l-.012.503-.31 4.834C20.656 15.566 18.976 17 16.974 17h-1.911c-1.992 0-3.682-1.434-3.944-3.356l-.369-5.456Z"/><path fill="#990838" d="M16 13.706c-.55 0-1.07-.14-1.508-.385-.153-.085-.306.096-.214.246.367.587.999.982 1.722.982.724 0 1.356-.395 1.723-.982.092-.15-.071-.32-.214-.246a3.118 3.118 0 0 1-1.509.385Z"/><path fill="#fff" d="M12.18 10.28c.15-.62.71-1.08 1.38-1.08.7 0 1.27.49 1.4 1.15a.23.23 0 0 1-.23.28h-2.28c-.18 0-.32-.18-.27-.35ZM19.83 10.28c-.15-.62-.71-1.08-1.38-1.08-.7 0-1.27.49-1.4 1.15-.03.15.08.28.23.28h2.28c.18 0 .31-.17.27-.35Z"/><path fill="#7D4533" d="M12.86 10.39c0-.5.41-.91.91-.91a.9.9 0 0 1 .91.91c0 .08-.01.16-.03.24h-1.76a.986.986 0 0 1-.03-.24ZM19.15 10.39c0-.5-.41-.91-.91-.91-.51 0-.91.41-.91.91 0 .08.01.16.03.24h1.76c.02-.08.03-.16.03-.24Z"/><path fill="#000" d="M13.77 9.87a.516.516 0 0 1 .46.76h-.92a.516.516 0 0 1 .46-.76ZM18.24 9.87a.516.516 0 0 0-.46.76h.92a.516.516 0 0 0-.46-.76Z"/><path fill="#fff" d="M13.62 10.02a.16.16 0 1 1-.32 0 .16.16 0 0 1 .32 0ZM18.12 10.02a.16.16 0 1 1-.32 0 .16.16 0 0 1 .32 0Z"/><path fill="#75443E" d="m15.654 10.29-.496 1.738c-.103.356.14.722.487.722h.73c.345 0 .589-.366.486-.722l-.496-1.738c-.103-.387-.599-.387-.71 0Z"/><path fill="#372128" d="M12.345 8.427a.274.274 0 0 0 .33-.01 2.227 2.227 0 0 1 1.5-.354.267.267 0 0 0 .3-.24.274.274 0 0 0-.24-.3 2.712 2.712 0 0 0-1.9.465.274.274 0 0 0 .01.439ZM19.346 8.422a.275.275 0 0 0 .327.005.273.273 0 0 0 .01-.438 2.731 2.731 0 0 0-1.9-.466.274.274 0 0 0 .063.544 2.215 2.215 0 0 1 1.5.355Z"/></svg>
